public/svgs/border.svg

<svg xmlns="http://www.w3.org/2000/svg" fill="none" viewBox="0 0 42 42"><path stroke="current" stroke-width="2" d="M41 36v5h-5m5-35V1h-5M6 1H1v5m0 30v5h5"/></svg>

<svg viewBox="0 0 42 42" fill="none" xmlns="http://www.w3.org/2000/svg">
    <path d="M41 36V41H36M41 6V1H36M6 1H1V6M1 36V41H6" stroke="current" stroke-width="2"/>
</svg>
